X:1444
L:1/8
M:2/4
K:F
|:"F" A>A BA |"C7" .G2 !>!c2 | c>c ed |"F" .c2 !>!f2 | A>A BA |1"C7" AG G2 | G>G AG |"F" GF F2 :|2 
"Gm/Bb" AG c>d |"C7" cB AG |"F" F3 z |:"F" c>c dc |"C7" .e2 !>!e2 | c>c dc |"F" .f2 !>!f2 | fe dc | 
"C7" ed c2 |1 ed cB |"F" dc A2 :|2"C7" ed ce |"F" f3 z |]

